assets/icons/uE03C-calendar.svg

<svg xmlns="http://www.w3.org/2000/svg" width="896" height="1232" viewBox="0 0 896 1232"><path d="M140 476h56v56h-56v-56zm0 140h56v56h-56v-56zm0 140h56v56h-56v-56zm140-280h56v56h-56v-56zm0 140h56v56h-56v-56zm0 140h56v56h-56v-56zm140-280h56v56h-56v-56zm0 140h56v56h-56v-56zm0 140h56v56h-56v-56zm140-280h56v56h-56v-56zm-28 112h112v112H532V588zm84 84v-56h-56v56h56zm84-196h56v56h-56v-56zm0 140h56v56h-56v-56zM448 153l89 99H358zm392 43q23 0 39.5 16.5T896 252v644q0 23-16.5 39.5T840 952H56q-23 0-39.5-16.5T0 896V252q0-23 16.5-39.5T56 196h237L407 74q16-18 41-18t41 18l114 122h237zm0 700V392H56v504h784zm0-532V252H579L448 112 317 252H56v112h784z"/></svg>

<?xml version="1.0" encoding="UTF-8" standalone="no"?><svg   xmlns:svg="http://www.w3.org/2000/svg"   xmlns="http://www.w3.org/2000/svg"   version="1.1"   width="896"   height="1232"   viewBox="0 0 896 1232">  <path     d="M140 476H196V532H140V476zM140 616H196V672H140V616zM140 756H196V812H140V756zM280 476H336V532H280V476zM280 616H336V672H280V616zM280 756H336V812H280V756zM420 476H476V532H420V476zM420 616H476V672H420V616zM420 756H476V812H420V756zM560 476H616V532H560V476zM532 588H644V700H532V588zM616 672V616H560V672H616zM700 476H756V532H700V476zM700 616H756V672H700V616zM448 153L537 252H358zM840 196Q863 196 879.5 212.5T896 252V896Q896 919 879.5 935.5T840 952H56Q33 952 16.5 935.5T0 896V252Q0 229 16.5 212.5T56 196H293L407 74Q423 56 448 56T489 74L603 196H840zM840 896V392H56V896H840zM840 364V252H579L448 112L317 252H56V364H840z"     id="icon388" /></svg>
